X:1
T:Planxty Irwin
C:Turlough O'Carolan (1670-1738)
S:BBC Virtual Session
M:3/4
L:1/4
K:G
g2f | e>fg | d2c | B>AG | c>BA | B>cd | F2G | A2d | g2f | e>fg | d2c |
B>AG | c>BA | B>cd | G2F | G3 ::
g>ag | gfg | a>ba | afd | b2b | a2g | f>ge | def | g2f | e>fg | d2c |
B>AG | c>BA | B>cd | G2F | G2 :|
